proprietary/assets/icons/personen/persoon-met-bivakmuts-torso.svg

<svg enable-background="new 0 0 64 64" height="64" viewBox="0 0 64 64" width="64" xmlns="http://www.w3.org/2000/svg"><path d="m0 0h64v64h-64z" fill="none"/><path d="m52.6 44.1c-1.6-1.7-5.2-3.3-8.3-4.4 0 0-.2-.8-.6-1.3-1.1-1.2-3-1.1-3.3-3.2-.1-.6.1-1.3.5-1.8 3.3-4.3 4.4-6.9 5.1-11.2.9-5-.1-11.1-2.4-14-2.6-3.1-6.6-4.2-11.6-4.2s-9 1.1-11.6 4.3c-2.4 2.9-3.3 9-2.4 14 .7 4.2 1.9 6.9 5.1 11.2.4.5.6 1.2.5 1.8-.3 2.1-2.2 2.1-3.3 3.2-.5.5-.6 1.3-.6 1.3-.2.1 3.8 4 12.3 4.5.1.2-.1.3-.3.4-4.7 1.2-9.8-.5-14.4-3.9-2.3.9-4.7 2.2-5.8 3.4-3 3-4.5 14.8-4.5 14.8h50s-1.5-11.8-4.4-14.9zm-27.8-20.4c-1.2-.9-2.6-3.1-1.3-4.3s6 .2 6.2 2.5-2.8 3.3-4.9 1.8zm7.5 10.3c-1.8 0-3.2-1.1-3.2-2.4s1.4-2.4 3.2-2.4 3.2 1.1 3.2 2.4-1.4 2.4-3.2 2.4zm6.9-10.3c-2.1 1.5-5.1.5-4.9-1.8.2-2.4 4.9-3.8 6.2-2.5s-.1 3.5-1.3 4.3z"/></svg>

<?xml version="1.0" encoding="utf-8"?>
<!-- Generator: Adobe Illustrator 22.1.0, SVG Export Plug-In . SVG Version: 6.00 Build 0)  -->
<!DOCTYPE svg PUBLIC "-//W3C//DTD SVG 1.1//EN" "http://www.w3.org/Graphics/SVG/1.1/DTD/svg11.dtd">
<svg version="1.1" xmlns="http://www.w3.org/2000/svg" xmlns:xlink="http://www.w3.org/1999/xlink" x="0px" y="0px" width="64px"
	 height="64px" viewBox="0 0 64 64" style="enable-background:new 0 0 64 64;" xml:space="preserve">
<style type="text/css">
	.st0{fill:none;}
</style>
<g id="Box">
	<rect class="st0" width="64" height="64"/>
</g>
<g id="Icon">
	<g>
		<path d="M52.6,44.1c-1.6-1.7-5.2-3.3-8.3-4.4c0,0-0.2-0.8-0.6-1.3c-1.1-1.2-3-1.1-3.3-3.2c0,0,0,0,0,0c-0.1-0.6,0.1-1.3,0.5-1.8
			c3.3-4.3,4.4-6.9,5.1-11.2c0.9-5-0.1-11.1-2.4-14C41,5.1,37,4,32,4s-9,1.1-11.6,4.3c-2.4,2.9-3.3,9-2.4,14
			c0.7,4.2,1.9,6.9,5.1,11.2c0.4,0.5,0.6,1.2,0.5,1.8c0,0,0,0,0,0c-0.3,2.1-2.2,2.1-3.3,3.2c-0.5,0.5-0.6,1.3-0.6,1.3
			c-0.2,0.1,3.8,4,12.3,4.5c0.1,0.2-0.1,0.3-0.3,0.4c-4.7,1.2-9.8-0.5-14.4-3.9c-2.3,0.9-4.7,2.2-5.8,3.4C8.5,47.2,7,59,7,59h50
			C57,59,55.5,47.2,52.6,44.1z M24.8,23.7c-1.2-0.9-2.6-3.1-1.3-4.3c1.3-1.2,6,0.2,6.2,2.5C29.9,24.2,26.9,25.2,24.8,23.7z M32.3,34
			c-1.8,0-3.2-1.1-3.2-2.4c0-1.3,1.4-2.4,3.2-2.4c1.8,0,3.2,1.1,3.2,2.4C35.5,32.9,34.1,34,32.3,34z M39.2,23.7
			c-2.1,1.5-5.1,0.5-4.9-1.8c0.2-2.4,4.9-3.8,6.2-2.5C41.8,20.7,40.4,22.9,39.2,23.7z"/>
	</g>
</g>
</svg>
